!!!!SEGMENT: pl-kk--kk-i-1--034_anonim--gloriosa-dicta-sunt.krn
!!!cenid: 15xx:747
!!!COM: Anonim
!!!COM-rismID: pe30004985
!!!CDT:
!!!CNT:
!!!OTL: Gloriosa dicta sunt
!!!PDT:
!!!AGN:
!!!SMS-siglum: PL-Kk
!!!SMS-shelfmark: Kk.I.1
!!!SMS-shelfwork: 034 W
!!!SMS-variant:
!!!SMS-altvar:
!!!NIFC-rismSourceID: 300257988
!!!NIFC-islandoraID: pl-kk:1
!!!URL-pdf-islandora: https://repozytorium.nifc.pl/islandora/object/pl-kk%3A1/datastream/PDF/view
!!!URL-scan: https://polish.musicsources.pl/pl/lokalizacje/galeria/rekopisy/5736 @EN{Scan on Polish Music Sources Website} @PL{Skany w portalu Dziedzictwo Muzyki Polskiej w otwartym dostępie}
!!!ONB-nifc: UWAGA: Cantus (s. 126v-127r, skan 0129), Altus (s. 121v-122r, skan 0315), Tenor (s. 107r, skan 0497), Bassus (s. 114v-115r, skan 0677).
!!!AIN: 1 alto 1 bass 1 soprn 1 tenor
!!!key: F:lyd
**kern	**text	**kern	**text	**kern	**text	**kern	**text
*part4	*part4	*part3	*part3	*part2	*part2	*part1	*part1
*staff4	*staff4	*staff3	*staff3	*staff2	*staff2	*staff1	*staff1
*I"BASSVS	*	*I"TENOR	*	*I"ALTVS	*	*I"CANTVS	*
*I'B	*	*I'T	*	*I'A	*	*I'S	*
*Ibass	*	*Itenor	*	*Ialto	*	*Isoprn	*
*ICvox	*	*ICvox	*	*ICvox	*	*ICvox	*
*clefF4	*	*clefC4	*	*clefC4	*	*clefC3	*
*k[b-]	*	*k[]	*	*k[b-]	*	*k[b-]	*
*F:lyd	*	*F:lyd	*	*F:lyd	*	*F:lyd	*
*M2/1	*	*M2/1	*	*M2/1	*	*M2/1	*
*met(C)	*	*met(C)	*	*met(C)	*	*met(C)	*
*all\middle	*	*all\middle	*	*all\middle	*	*all\middle	*
=1-	=1-	=1-	=1-	=1-	=1-	=1-	=1-
!	!	!LO:TX:t=P:problem=brak bemola przy kluczu	!	!	!	!	!
1r	.	1F	Glo-	1A	Glo-	1c	Glo-
1F	Glo-	1D	-ri-	1A	-ri-	2d\	.
.	.	.	.	.	.	2.f\	-ri-
=2-	=2-	=2-	=2-	=2-	=2-	=2-	=2-
*	*	*lig	*	*	*	*	*
2D/	-ri-	1F	-o-	2.A\	-o-	.	.
.	.	.	.	.	.	4e\	-o-
1F	-o-	.	.	.	.	2.c/	.
.	.	.	.	4B-\	-ſa	.	.
.	.	1G	.	1c	.	.	.
.	.	.	.	.	.	4d/	.
2E\	.	.	.	.	.	2e\	.
*	*	*Xlig	*	*	*	*	*
=3-	=3-	=3-	=3-	=3-	=3-	=3-	=3-
2D/	.	1F	-ſa	1A	.	2f\	.
2C/	.	.	.	.	.	2e\	.
2BB-/	.	1F	.	2r	.	2d\	.
*	*	*	*	*	*ij	*	*
2AA/	.	.	.	2A\	glo-	2c/	.
=4-	=4-	=4-	=4-	=4-	=4-	=4-	=4-
*lig	*	*	*	*	*	*	*
1GG	.	1G	dic-	2d\	  ri-	2B-/	.
.	.	.	.	2d\	-o-	2A/	.
*	*	*lig	*	*	*	*	*
*	*	*	*	*custos:c	*	*custos:F	*
1C	.	1G	-ta	1c	-ſa	1G	.
*Xlig	*	*	*	*	*Xij	*	*
=5-	=5-	=5-	=5-	=5-	=5-	=5-	=5-
!	!	!	!	!LO:LB:g=original	!	!LO:LB:g=original	!
2.FF/	-ſa	1A	.	2.c\	.	4F/	-ſa
.	.	.	.	.	.	4G/	.
.	.	.	.	.	.	4A/	.
4GG/	.	.	.	4B-\	dic-	4B-/	.
*	*	*Xlig	*	*	*	*	*
*custos:BB-	*	*	*	*	*	*	*
*	*	*lig	*	*	*	*	*
2AA/	.	1F	ſu(n)t	4A/	-ta	2c/	.
.	.	.	.	4G/	.	.	.
!LO:LB:g=original	!	!	!	!	!	!	!
2BB-/	dic-	.	.	1F/	.	2d/	.
=6-	=6-	=6-	=6-	=6-	=6-	=6-	=6-
1GG	-ta	1G	.	.	.	2.B-/	dic-
.	.	.	.	2E/	.	.	.
.	.	.	.	.	.	4c/	-ta
*	*	*Xlig	*	*	*	*	*
1FF	ſ(un)t	1A	de	2F/	ſu(n)t	2d\	.
.	.	.	.	4F/	de	2c/	ſu(n)t
.	.	.	.	4G/	.	.	.
=7-	=7-	=7-	=7-	=7-	=7-	=7-	=7-
*	*	*custos:F	*	*	*	*	*
2r	.	1A	te	4A/	.	2.c/	de
.	.	.	.	4B-\	.	.	.
2FF/	dic-	.	.	2c\	.	.	.
.	.	.	.	.	.	4A/	.
!	!	!LO:LB:g=original	!	!	!	!	!
2BB-/	-ta	1F	Ma-	2d\	.	2B-/	.
2AA/	ſ(un)t	.	.	1c\	.	2c/	te
=8-	=8-	=8-	=8-	=8-	=8-	=8-	=8-
*lig	*	*lig	*	*	*	*	*
1D	de	1F	-ri-	.	.	2d\	.
.	.	.	.	2B-\	.	2.f\	.
1C	.	1G	.	1c	te	.	.
.	.	.	.	.	.	4e\	Ma-
.	.	.	.	.	.	2.e\	-ri-
*Xlig	*	*Xlig	*	*	*	*	*
=9-	=9-	=9-	=9-	=9-	=9-	=9-	=9-
*	*	*lig	*	*	*	*	*
2FF/	te	1F	.	1A	Ma-	.	.
.	.	.	.	.	.	4d\	.
*	*	*	*	*	*	*custos:c	*
2FF/	.	.	.	.	.	1d	.
2GG/	Ma-	1E	.	2B-/	-ri-	.	.
!	!	!	!	!	!	!LO:LB:g=original	!
2AA/	-ri-	.	.	4A/	.	2c/	.
*	*	*	*	*custos:F	*	*	*
.	.	.	.	4G/	.	.	.
*	*	*Xlig	*	*	*	*	*
=10-	=10-	=10-	=10-	=10-	=10-	=10-	=10-
*	*	*lig	*	*	*	*	*
!	!	!	!	!LO:LB:g=original	!	!	!
2BB-/	.	1D	.	2F/	-a	1d	-a
2GG/	.	.	.	2B-\	.	.	.
2D/	.	1F	.	2A/	qui-	1d	qui-
2BB-/	-a	.	.	2B-\	-a	.	.
*	*	*Xlig	*	*	*	*	*
=11-	=11-	=11-	=11-	=11-	=11-	=11-	=11-
2AA/	.	1F	-a	2c\	.	2c/	-a
*custos:FF	*	*	*	*	*	*	*
2BB-/	qui-	.	.	2d\	fe-	2B-/	.
!LO:LB:g=original	!	!	!	!	!	!	!
2FF/	-a	1F	qui-	2c\	-cit	2A/	fe-
2BB-/	fe-	.	.	1B-\	qui-	1d\	-cit
=12-	=12-	=12-	=12-	=12-	=12-	=12-	=12-
2GG/	-cit	1G	-a	.	.	.	.
2C/	mi-	.	.	2G/	-a	2c/	qui-
*	*	*lig	*	*	*	*	*
1GG	-(chi)	1G	fe-	2r	.	2.d\	-a
.	.	.	.	2.B-/	fe-	.	.
.	.	.	.	.	.	4e\	fe-
=13-	=13-	=13-	=13-	=13-	=13-	=13-	=13-
0r	.	1A	.	.	.	2f\	-cit
.	.	.	.	4A/	-cit	.	.
.	.	.	.	1A	.	2.e\	.
*	*	*Xlig	*	*	*	*	*
.	.	1B-X	.	.	.	.	.
.	.	.	.	.	.	4d\	.
.	.	.	.	2G/	.	1d\	.
=14-	=14-	=14-	=14-	=14-	=14-	=14-	=14-
*	*	*lig	*	*	*	*	*
1r	.	1A	-cit	2A/	.	.	.
.	.	.	.	2A/	ti-	2c\	.
2r	.	1G	.	2.B-\	-bi	2d\	ti-
2G\	mi-	.	.	.	.	2d\	-bi
.	.	.	.	4c\	.	.	.
*	*	*Xlig	*	*	*	*	*
=15-	=15-	=15-	=15-	=15-	=15-	=15-	=15-
*	*	*	*	*custos:d	*	*	*
2D/	-chi	1A	ti-	2d\	.	2.f\	.
!	!	!	!	!LO:PB:g=original	!	!	!
1F	.	.	.	2.d\	ma-	.	.
.	.	.	.	.	.	4e\	ma-
*	*	*lig	*	*	*	*	*
*	*	*	*	*	*	*custos:e	*
.	.	1G	-bi	.	.	2d\	.
.	.	.	.	4c\	.	.	.
!	!	!	!	!	!	!LO:LB:g=original	!
2E\	ma-	.	.	1c\	.	2e\	.
=16-	=16-	=16-	=16-	=16-	=16-	=16-	=16-
*lig	*	*	*	*	*	*	*
1D	.	1F	.	.	.	1f	.
.	.	.	.	2B-\	.	.	.
*	*	*Xlig	*	*	*	*	*
*	*	*lig	*	*	*	*	*
1C	.	1G	ma-	2.c\	.	2.e\	.
.	.	.	.	4B-\	-gna	4d\	-gna
*Xlig	*	*	*	*	*	*	*
=17-	=17-	=17-	=17-	=17-	=17-	=17-	=17-
2FF/	-gna	1A	.	2.A/	.	2.c/	.
2.FF/	ma-	.	.	.	.	.	.
.	.	.	.	4G/	.	4B-/	.
*	*	*Xlig	*	*	*	*	*
*	*	*lig	*	*	*	*	*
.	.	1c	.	4F/	.	1A	.
4GG/	.	.	.	4G/	.	.	.
4AA/	.	.	.	4A/	.	.	.
4BB-/	.	.	.	4B-/	.	.	.
=18-	=18-	=18-	=18-	=18-	=18-	=18-	=18-
*lig	*	*	*	*	*	*	*
*	*	*custos:F	*	*	*	*	*
1C	.	1G	.	4c\	.	2r	.
.	.	.	.	4G/	.	.	.
*	*	*	*	*	*	*	*ij
.	.	.	.	1c	.	2e\	ma-
*	*	*Xlig	*	*	*	*	*
*	*	*lig	*	*	*	*	*
!	!	!LO:LB:g=original	!	!	!	!	!
1D	.	1F	.	.	.	4d\	.
.	.	.	.	.	.	4e\	.
.	.	.	.	2B-\	.	4f\	.
.	.	.	.	.	.	4d\	.
*Xlig	*	*	*	*	*	*	*
=19-	=19-	=19-	=19-	=19-	=19-	=19-	=19-
2C/	.	1G	.	2c\	.	2e\	.
*custos:C	*	*	*	*	*	*	*
2BB-/	.	.	.	2d\	.	1f	.
*	*	*Xlig	*	*	*	*	*
*	*	*lig	*	*	*	*	*
*	*	*	*	*custos:A	*	*	*
!LO:PB:g=original	!	!	!	!	!	!	!
1C	-gna	1G	-gna	1c	.	.	.
.	.	.	.	.	.	2e\	.
=20-	=20-	=20-	=20-	=20-	=20-	=20-	=20-
!	!	!	!	!LO:LB:g=original	!	!	!
1D	.	1F	.	1A	.	2f\	.
.	.	.	.	.	.	1d	-gna
*lig	*	*Xlig	*	*	*	*	*Xij
1D	qui	1A	.	2r	.	.	.
.	.	.	.	2d\	qui	2.f\	qui
=21-	=21-	=21-	=21-	=21-	=21-	=21-	=21-
*col	*	*lig	*	*	*	*	*
2.F\	.	1A	qui	2c\	.	.	.
*	*	*	*	*	*	*custos:c	*
.	.	.	.	.	.	4e\	.
!	!	!	!	!	!	!LO:PB:g=original	!
.	.	.	.	2.c\	po-	4c/	po-
*Xlig	*	*	*	*	*	*	*
4E\	po-	.	.	.	.	4d/	.
*Xcol	*	*	*	*	*	*	*
4C/	.	1c	.	.	.	4e\	.
4D/	.	.	.	4B-\	-tens	4f\	.
4E\	.	.	.	4G/	.	2.g\	.
4F\	.	.	.	4A/	.	.	.
*	*	*Xlig	*	*	*	*	*
=22-	=22-	=22-	=22-	=22-	=22-	=22-	=22-
2.G\	.	1G	po-	4B-\	.	.	.
.	.	.	.	4c\	.	4f\	.
.	.	.	.	1d	.	4d\	.
4F\	.	.	.	.	.	4e\	.
*	*	*lig	*	*	*	*	*
4D/	.	1A	.	.	.	2f\	.
4E/	.	.	.	.	.	.	.
2F\	.	.	.	2A/	eſt	1d\	.
=23-	=23-	=23-	=23-	=23-	=23-	=23-	=23-
1E	.	1G	.	0r	.	.	.
.	.	.	.	.	.	2c/	.
*	*	*Xlig	*	*	*	*	*
*	*	*lig	*	*	*	*	*
2D/	-tens	1F	-tens	.	.	2.d/	-tens
4BB-/	es	.	.	.	.	.	.
4C/	.	.	.	.	.	4c/	eſt
=24-	=24-	=24-	=24-	=24-	=24-	=24-	=24-
*	*	*	*	*	*ij	*	*
4D/	.	1D	.	1F	qui	2B-/	.
4E/	.	.	.	.	.	.	.
*custos:E	*	*	*	*	*	*	*
1F	.	.	.	.	.	4A/	.
.	.	.	.	.	.	4G/	.
*	*	*Xlig	*	*	*	*	*
*	*	*lig	*	*	*	*	*
!	!	!	!	!LO:SIC:v:s=2F/	!	!	!
.	.	1C	.	2G/	po-	4A/	.
.	.	.	.	.	.	4B-/	.
!LO:LB:g=original	!	!	!	!LO:LB:g=original	!	!	!
!	!	!	!	!LO:SIC:v:s=2G/	!	!	!
!	!	!	!	!LO:LB:g=original	!	!	!
2E\	.	.	.	2A/	-tens	1c\	.
=25-	=25-	=25-	=25-	=25-	=25-	=25-	=25-
0F	.	1D	.	1F	eſt	.	.
*	*	*	*	*	*Xij	*	*
.	.	.	.	.	.	4B-/	.
*	*	*	*	*	*	*custos:B-	*
.	.	.	.	.	.	4A/	.
*	*	*Xlig	*	*	*	*	*
*	*	*lig	*	*	*	*	*
!	!	!	!	!	!	!LO:LB:g=original	!
.	.	1D	eſt	2r	.	1B-	.
.	.	.	.	2F/	al-	.	.
=26-	=26-	=26-	=26-	=26-	=26-	=26-	=26-
0r	.	1C	.	2G/	-le-	2c/	.
*	*	*	*	*custos:B-	*	*	*
.	.	.	.	2A/	-lu-	2c/	al-
*	*	*Xlig	*	*	*	*	*
!	!	!	!	!LO:LB:g=original	!	!	!
.	.	1G	Al-	2.B-/	-ia	2d\	-le-
.	.	.	.	.	.	2e\	-lu-
.	.	.	.	4A/	.	.	.
=27-	=27-	=27-	=27-	=27-	=27-	=27-	=27-
*	*	*lig	*	*	*	*	*
2r	.	1c	-le-	4F/	.	2f\	-ia
.	.	.	.	4G/	.	.	.
2C/	Al-	.	.	1A	.	4r	.
.	.	.	.	.	.	4e\	al-
2D/	-le-	1Bn	.	.	.	2f\	-le-
2E\	-lu-	.	.	2G/	.	2g\	-lu-
*	*	*Xlig	*	*	*	*	*
=28-	=28-	=28-	=28-	=28-	=28-	=28-	=28-
*	*	*lig	*	*	*	*	*
0.F	-iia	1A	.	2A/	.	1c	-ia
.	.	.	.	4r	.	.	.
.	.	.	.	4A/	al-	.	.
*	*	*custos:A	*	*	*	*	*
.	.	1c	.	2A/	-le-	2r	.
*	*	*	*	*	*	*	*ij
.	.	.	.	2A/	-lu-	2c/	al-
*	*	*Xlig	*	*	*	*	*
=29-	=29-	=29-	=29-	=29-	=29-	=29-	=29-
*	*	*lig	*	*	*	*	*
!	!	!LO:LB:g=original	!	!	!	!	!
.	.	1A	.	2D/	-ia	2.d\	-le-
.	.	.	.	4r	.	.	.
.	.	.	.	4A/	al-	4e\	-lu-
2r	.	1c	.	2F/	-le-	2f\	-ia
*	*ij	*	*	*	*	*	*
2C/	al-	.	.	2c\	-lu-	4r	.
.	.	.	.	.	.	4e\	al-
*	*	*Xlig	*	*	*	*	*
=30-	=30-	=30-	=30-	=30-	=30-	=30-	=30-
2.D/	-le-	1F	.	1A	-ia	2f\	-le-
*	*	*	*	*	*	*custos:c	*
.	.	.	.	.	.	2d\	-lu-
4E\	-lu-	.	.	.	.	.	.
*	*	*lig	*	*	*ij	*	*
!	!	!	!	!	!	!LO:LB:g=original	!
1F	-iia	1A	-lu-	2r	.	2c/	-ia
.	.	.	.	2A\	al-	4r	.
.	.	.	.	.	.	4c/	al-
=31-	=31-	=31-	=31-	=31-	=31-	=31-	=31-
2r	.	1G	.	2B-\	-le-	2d\	-le-
*	*	*	*	*custos:A	*	*	*
2C/	al-	.	.	2c\	-lu-	2e\	-lu-
*	*	*Xlig	*	*	*	*	*
!	!	!	!	!LO:LB:g=original	!	!	!
2.D/	-le-	1%9F;l\	-ija	2A/	-ia	1f	-ia
.	.	.	.	4r	.	.	.
4E\	-lu-	.	.	4A/	al-	.	.
=32-	=32-	=32-	=32-	=32-	=32-	=32-	=32-
1F	-iia	.	.	2A/	-le-	2r	.
.	.	.	.	2A/	-lu-	2c/	al-
2r	.	.	.	1D	-ia	2.d\	-le-
*custos:D	*	*	*	*	*	*	*
2BB-/	al-	.	.	.	.	.	.
.	.	.	.	.	.	4e\	-lu-
=33-	=33-	=33-	=33-	=33-	=33-	=33-	=33-
!LO:LB:g=original	!	!	!	!	!	!	!
2.D/	-le-	.	.	2r	.	1f	-ia
.	.	.	.	2F/	al-	.	.
4E\	-lu-	.	.	.	.	.	.
2F\	-iia	.	.	2.A/	-le-	2F/	al-
*	*Xij	*	*	*	*Xij	*	*
2.FF/	al-	.	.	.	.	2.A/	-le-
*	*	*	*	*	*	*	*Xij
.	.	.	.	4B-\	.	.	.
=34-	=34-	=34-	=34-	=34-	=34-	=34-	=34-
.	.	.	.	1c	.	.	.
4GG/	-le-	.	.	.	.	4B-/	.
2AA/	.	.	.	.	.	2c/	.
1BB-	-lu-	.	.	2F/	.	0d	-lu-
.	.	.	.	2B-\	.	.	.
=35-	=35-	=35-	=35-	=35-	=35-	=35-	=35-
1BB-	-ii-	.	.	1B-	-lu-	.	.
1FF;l	-a	.	.	1A;l	-ia	1c;l	-ia
==	==	==	==	==	==	==	==
*-	*-	*-	*-	*-	*-	*-	*-
!!!system-decoration: [(s1,s2,s3,s4)]
!!!RDF**kern: l = terminal long
!!!RDF**kern: > = above
!!!RDF**kern: < = below
!!!ENC: Mateusz Solarz
!!!END: 2022-03-03
!!!ENC: Kamil Watkowski
!!!END: 2022-03-12
